public/assets/brands/institute-of-food.svg

<svg fill="none" height="212" viewBox="0 0 212 212" width="212" xmlns="http://www.w3.org/2000/svg" xmlns:xlink="http://www.w3.org/1999/xlink"><clipPath id="a"><path d="m0 0h212v212h-212z"/></clipPath><g clip-path="url(#a)"><path d="m206 0h-200c-3.31371 0-6 2.68629-6 6v200c0 3.314 2.68629 6 6 6h200c3.314 0 6-2.686 6-6v-200c0-3.31371-2.686-6-6-6z" fill="#f5f5f5"/><path d="m42.1 79.6149 7.3604 64.9621h102.5456l19.994-97.4432z" fill="#010101"/><path d="m67.7333 131.37c.0366 2.075-.1831 3.772-1.5868 5.395-1.4281 1.624-3.491 2.563-5.6637 2.563-4.3699.037-7.9464-3.491-7.983-7.86-.0366-4.37 3.491-7.947 7.8609-7.983h.2197c2.6854 0 4.8581 1.196 6.4816 3.308l-1.2329 1.159c-1.2816-1.806-3.0027-2.881-5.2609-2.881-3.491 0-6.2497 2.942-6.2497 6.397 0 1.623.647 3.173 1.7822 4.321 1.123 1.123 2.7464 1.953 4.3454 1.953 2.661 0 5.4563-1.953 5.4563-4.797h-4.553v-1.587h6.3839z" fill="#fff"/><path d="m72.8722 139.06h-1.7089v-15.307h2.2094c2.9051 0 5.6027.769 5.6027 4.224 0 2.355-1.477 4.028-3.8328 4.223l4.8703 6.86h-2.0872l-4.6263-6.726h-.4272zm0-8.215h.5249c1.9286 0 3.8816-.366 3.8816-2.746 0-2.515-1.8431-2.747-3.906-2.747h-.5127v5.493z" fill="#fff"/><path d="m98.3713 131.431c0 4.406-3.6131 7.897-7.9829 7.897-4.3699 0-7.983-3.491-7.983-7.897 0-4.407 3.5765-7.983 7.983-7.983s7.9829 3.576 7.9829 7.983zm-14.257-.024c0 3.454 2.8074 6.335 6.2741 6.335 3.4666 0 6.274-2.869 6.274-6.335 0-3.467-2.8074-6.275-6.274-6.275-3.4667 0-6.2741 2.808-6.2741 6.275z" fill="#fff"/><path d="m113.373 127.11c-1.221-1.282-2.905-2.014-4.675-2.027-3.406 0-6.177 2.967-6.177 6.336s2.783 6.335 6.213 6.335c1.722 0 3.418-.806 4.627-2.027v2.112c-1.331.964-2.93 1.489-4.566 1.502-4.321 0-7.983-3.516-7.983-7.861.013-4.407 3.577-7.971 7.983-7.983 1.648-.025 3.26.5 4.566 1.501v2.112z" fill="#fff"/><path d="m117.254 123.753h7.935v1.587h-6.226v4.553h6.042v1.587h-6.042v6.005h6.226v1.587h-7.935z" fill="#fff"/><path d="m130.804 139.06h-1.709v-15.307h2.209c2.905 0 5.603.769 5.603 4.224 0 2.355-1.477 4.028-3.845 4.223l4.87 6.86h-2.087l-4.626-6.726h-.428v6.726zm0-8.215h.524c1.929 0 3.882-.366 3.882-2.746 0-2.515-1.843-2.759-3.894-2.759h-.512z" fill="#fff"/><path d="m139.324 123.753h1.965l3.894 6.824 3.893-6.824h1.966l-5.017 8.74v6.579h-1.709v-6.579l-5.017-8.74z" fill="#fff"/><path d="m152.262 163.289h-101.7641v.867h101.7641z" fill="#010101"/><path d="m50.4979 100.183h103.4851" stroke="#fff" stroke-width=".71"/><path d="m66.8789 112.572c.0244 3.93-3.1493 7.129-7.0797 7.153-3.9305.024-7.1285-3.149-7.1529-7.08-.0245-3.93 3.1492-7.128 7.0796-7.153h.0367c3.906-.024 7.0919 3.137 7.1163 7.043zm-12.7068-.024c0 3.076 2.5023 5.651 5.5905 5.651 3.1248.037 5.6759-2.478 5.7125-5.59.0367-3.113-2.4778-5.676-5.5905-5.713-3.1248-.037-5.6759 2.478-5.7125 5.591z" fill="#fff"/><path d="m70.4674 107.14v4.053h4.5408v1.416h-4.5408v6.774h-1.5257v-13.659h6.213v1.416z" fill="#fff"/><path d="m84.7001 107.14v4.053h4.5408v1.416h-4.5408v6.774h-1.5258v-13.659h6.2131v1.416z" fill="#fff"/><path d="m105.378 112.572c.024 3.93-3.149 7.129-7.0799 7.153-3.9305.024-7.1285-3.149-7.1529-7.08-.0245-3.93 3.1492-7.128 7.0797-7.153h.0366c3.9065-.024 7.0915 3.137 7.1165 7.043zm-12.707-.024c0 3.1 2.4901 5.627 5.5905 5.651 3.1005 0 5.5905-2.563 5.5905-5.651.061-3.089-2.405-5.64-5.4929-5.701-3.0882-.061-5.6393 2.405-5.7003 5.493v.208z" fill="#fff"/><path d="m121.002 112.572c.024 3.93-3.149 7.129-7.08 7.153-3.93.024-7.128-3.149-7.153-7.08-.024-3.93 3.149-7.128 7.08-7.153h.036c3.907-.024 7.092 3.137 7.117 7.043zm-12.719-.024c0 3.088 2.502 5.651 5.59 5.651 3.125.037 5.676-2.478 5.713-5.59.036-3.125-2.478-5.676-5.591-5.713-3.124-.037-5.676 2.478-5.712 5.591z" fill="#fff"/><path d="m123.065 105.724h2.563c2.051 0 3.711.269 5.322 1.648 1.562 1.343 2.258 3.174 2.258 5.2s-.732 3.747-2.221 5.09c-1.636 1.453-3.259 1.721-5.396 1.721h-2.526v-13.646zm2.624 12.243c1.672 0 3.064-.232 4.309-1.416 2.221-2.148 2.27-5.676.134-7.885-.061-.073-.134-.134-.207-.207-1.245-1.099-2.625-1.319-4.236-1.319h-1.099v10.827z" fill="#fff"/><path d="m147.868 117.455c-1.208 1.086-2.661 2.16-4.358 2.16-2.087 0-3.979-1.562-3.979-3.735 0-2.283 1.648-3.369 3.345-4.492l.158-.11c-.61-.854-1.355-1.77-1.355-2.893 0-1.721 1.282-2.893 2.991-2.893 1.538 0 2.893 1.087 2.893 2.686s-1.233 2.514-2.405 3.405l2.881 3.675 1.538-1.795 1.098.903-1.733 2.027 2.319 2.99h-1.916l-1.465-1.916zm-4.59-4.614c-1.037.708-2.258 1.538-2.258 2.929 0 1.282 1.123 2.466 2.405 2.466 1.379 0 2.563-1.062 3.552-1.917l-3.039-3.906-.647.44zm1.136-2.454c.781-.598 1.708-1.123 1.708-2.209 0-.83-.683-1.392-1.489-1.392-.805 0-1.489.647-1.501 1.465v.037c0 .683.452 1.196.83 1.733l.329.452.123-.098z" fill="#fff"/><g fill="#010101"><path d="m54.0622 149.215 3.3201 7.666 3.3323-7.666 1.8554 9.656h-1.0498l-1.1718-6.177h-.0244l-2.9417 6.555-2.9295-6.555h-.0245l-1.1718 6.177h-1.0375l1.8554-9.656z"/><path d="m66.1709 156.271-1.0986 2.588h-1.1108l4.2112-9.57 4.1014 9.57h-1.123l-1.0742-2.588zm1.9774-4.602-1.5624 3.662h3.0882z"/><path d="m74.4224 149.338 7.1285 7.458v-7.068h1.0131v9.546l-7.1285-7.446v7.031h-1.0131z"/><path d="m86.9096 156.271-1.0986 2.588h-1.1108l4.2112-9.57 4.1013 9.57h-1.123l-1.0741-2.588zm1.9774-4.602-1.5624 3.662h3.0882z"/><path d="m103.596 154.281c.024 1.233-.11 2.258-.94 3.222-.855.965-2.088 1.526-3.3815 1.526-2.6122.037-4.7483-2.063-4.7849-4.663-.0366-2.612 2.0629-4.748 4.6628-4.784h.1709c1.5987 0 2.8927.72 3.8697 1.977l-.733.696c-.769-1.074-1.794-1.721-3.1367-1.721-2.0873 0-3.7351 1.757-3.7351 3.82 0 .965.3784 1.88 1.0497 2.576.6714.671 1.6357 1.159 2.5878 1.159 1.5863 0 3.2593-1.159 3.2593-2.856h-2.71v-.94h3.821z"/><path d="m106.11 149.728h4.736v.94h-3.723v2.71h3.601v.94h-3.601v3.589h3.723v.939h-4.736v-9.13z"/><path d="m114.862 149.215 3.32 7.666 3.332-7.666 1.856 9.656h-1.038l-1.172-6.177h-.024l-2.942 6.555-2.929-6.555h-.025l-1.171 6.177h-1.038l1.855-9.656z"/><path d="m125.604 149.728h4.736v.94h-3.723v2.71h3.613v.94h-3.613v3.589h3.723v.939h-4.736v-9.13z"/><path d="m133.22 149.338 7.129 7.458v-7.068h1.013v9.546l-7.128-7.446v7.031h-1.014z"/><path d="m146.757 158.859h-1.013v-8.191h-2.197v-.94h5.456v.94h-2.234v8.191z"/></g><path d="m54.8921 95.886h-1.5258v-13.6467h1.5258z" fill="#fff"/><path d="m59.7502 81.6533 10.644 11.1566v-10.5707h1.5136v14.2693l-10.644-11.1322v10.5218h-1.5258v-14.2326h.0122z" fill="#fff"/><path d="m82.9302 84.9003c-.5493-.9399-1.1963-1.4892-2.3559-1.4892s-2.2581.8666-2.2581 2.1239c0 1.1718 1.2084 1.7211 2.1361 2.1361l.9032.4028c1.77.7812 3.2714 1.6601 3.2714 3.845 0 2.3803-1.9164 4.2112-4.2967 4.2112-2.1971 0-3.8206-1.4159-4.26-3.5276l1.4892-.415c.1953 1.3915 1.2694 2.5389 2.7342 2.5389s2.8075-1.123 2.8075-2.661-1.2451-2.1361-2.5146-2.7098l-.83-.3662c-1.599-.7202-2.9661-1.538-2.9661-3.491 0-2.1239 1.7943-3.4788 3.8206-3.4788 1.4891-.0244 2.8562.8056 3.5276 2.1239l-1.2084.7812z" fill="#fff"/><path d="m92.4756 95.886h-1.5136v-12.243h-3.2957v-1.4159h8.1416v1.4159h-3.3323z" fill="#fff"/><path d="m100.91 95.886h-1.5256v-13.6467h1.5256z" fill="#fff"/><path d="m109.296 95.886h-1.526v-12.243h-3.296v-1.4159h8.154v1.4159h-3.332z" fill="#fff"/><path d="m117.67 90.3687c0 1.0131-.037 2.1727.598 3.0394.598.83 1.757 1.3061 2.746 1.3061s2.002-.4517 2.686-1.2085c.732-.8666.671-2.0629.671-3.137v-8.1294h1.526v8.5444c0 1.4892-.11 2.661-1.197 3.784-.952 1.0009-2.282 1.5624-3.674 1.5624-1.318 0-2.575-.4883-3.527-1.3915-1.197-1.1352-1.343-2.3803-1.343-3.9427v-8.5444h1.526v8.1294z" fill="#fff"/><path d="m134.197 95.886h-1.526v-12.243h-3.296v-1.4159h8.154v1.4159h-3.332z" fill="#fff"/><path d="m141.081 82.2393h7.08v1.4159h-5.554v4.0525h5.395v1.4159h-5.395v5.3586h5.554v1.416h-7.08v-13.6467z" fill="#fff"/></g></svg>

<svg width="212" height="212" viewBox="0 0 212 212" fill="none" xmlns="http://www.w3.org/2000/svg">
<g clip-path="url(#clip0_142_2461)">
<path d="M206 0H6C2.68629 0 0 2.68629 0 6V206C0 209.314 2.68629 212 6 212H206C209.314 212 212 209.314 212 206V6C212 2.68629 209.314 0 206 0Z" fill="#F5F5F5"/>
<path d="M42.1 79.6149L49.4604 144.577H152.006L172 47.1338L42.1 79.6149Z" fill="#010101"/>
<path d="M67.7333 131.37C67.7699 133.445 67.5502 135.142 66.1465 136.765C64.7184 138.389 62.6555 139.328 60.4828 139.328C56.1129 139.365 52.5364 135.837 52.4998 131.468C52.4632 127.098 55.9908 123.521 60.3607 123.485H60.5804C63.2658 123.485 65.4385 124.681 67.062 126.793L65.8291 127.952C64.5475 126.146 62.8264 125.071 60.5682 125.071C57.0772 125.071 54.3185 128.013 54.3185 131.468C54.3185 133.091 54.9655 134.641 56.1007 135.789C57.2237 136.912 58.8471 137.742 60.4461 137.742C63.1071 137.742 65.9024 135.789 65.9024 132.945H61.3494V131.358H67.7333V131.37Z" fill="white"/>
<path d="M72.8722 139.06H71.1633V123.753H73.3727C76.2778 123.753 78.9754 124.522 78.9754 127.977C78.9754 130.332 77.4984 132.005 75.1426 132.2L80.0129 139.06H77.9257L73.2994 132.334H72.8722V139.06ZM72.8722 130.845H73.3971C75.3257 130.845 77.2787 130.479 77.2787 128.099C77.2787 125.584 75.4356 125.352 73.3727 125.352H72.86V130.845H72.8722Z" fill="white"/>
<path d="M98.3713 131.431C98.3713 135.837 94.7582 139.328 90.3884 139.328C86.0185 139.328 82.4054 135.837 82.4054 131.431C82.4054 127.024 85.9819 123.448 90.3884 123.448C94.7949 123.448 98.3713 127.024 98.3713 131.431ZM84.1143 131.407C84.1143 134.861 86.9217 137.742 90.3884 137.742C93.855 137.742 96.6624 134.873 96.6624 131.407C96.6624 127.94 93.855 125.132 90.3884 125.132C86.9217 125.132 84.1143 127.94 84.1143 131.407Z" fill="white"/>
<path d="M113.373 127.11C112.152 125.828 110.468 125.096 108.698 125.083C105.292 125.083 102.521 128.05 102.521 131.419C102.521 134.788 105.304 137.754 108.734 137.754C110.456 137.754 112.152 136.948 113.361 135.727V137.839C112.03 138.803 110.431 139.328 108.795 139.341C104.474 139.341 100.812 135.825 100.812 131.48C100.825 127.073 104.389 123.509 108.795 123.497C110.443 123.472 112.055 123.997 113.361 124.998V127.11H113.373Z" fill="white"/>
<path d="M117.254 123.753H125.189V125.34H118.963V129.893H125.005V131.48H118.963V137.485H125.189V139.072H117.254V123.753Z" fill="white"/>
<path d="M130.804 139.06H129.095V123.753H131.304C134.209 123.753 136.907 124.522 136.907 127.977C136.907 130.332 135.43 132.005 133.062 132.2L137.932 139.06H135.845L131.219 132.334H130.791V139.06H130.804ZM130.804 130.845H131.328C133.257 130.845 135.21 130.479 135.21 128.099C135.21 125.584 133.367 125.34 131.316 125.34H130.804V130.845Z" fill="white"/>
<path d="M139.324 123.753H141.289L145.183 130.577L149.076 123.753H151.042L146.025 132.493V139.072H144.316V132.493L139.299 123.753H139.324Z" fill="white"/>
<path d="M152.262 163.289H50.4979V164.156H152.262V163.289Z" fill="#010101"/>
<path d="M50.4979 100.183H153.983" stroke="white" stroke-width="0.71"/>
<path d="M66.8789 112.572C66.9033 116.502 63.7296 119.701 59.7992 119.725C55.8687 119.749 52.6707 116.576 52.6463 112.645C52.6218 108.715 55.7955 105.517 59.7259 105.492H59.7626C63.6686 105.468 66.8545 108.629 66.8789 112.535V112.572ZM54.1721 112.548C54.1721 115.624 56.6744 118.199 59.7626 118.199C62.8874 118.236 65.4385 115.721 65.4751 112.609C65.5118 109.496 62.9973 106.933 59.8846 106.896C56.7598 106.859 54.2087 109.374 54.1721 112.487C54.1721 112.511 54.1721 112.523 54.1721 112.548Z" fill="white"/>
<path d="M70.4674 107.14V111.193H75.0082V112.609H70.4674V119.383H68.9417V105.724H75.1547V107.14H70.4674Z" fill="white"/>
<path d="M84.7001 107.14V111.193H89.2409V112.609H84.7001V119.383H83.1743V105.724H89.3874V107.14H84.7001Z" fill="white"/>
<path d="M105.378 112.572C105.402 116.502 102.229 119.701 98.2981 119.725C94.3676 119.749 91.1696 116.576 91.1452 112.645C91.1207 108.715 94.2944 105.517 98.2249 105.492H98.2615C102.168 105.468 105.353 108.629 105.378 112.535V112.572ZM92.671 112.548C92.671 115.648 95.1611 118.175 98.2615 118.199C101.362 118.199 103.852 115.636 103.852 112.548C103.913 109.459 101.447 106.908 98.3591 106.847C95.2709 106.786 92.7198 109.252 92.6588 112.34V112.548H92.671Z" fill="white"/>
<path d="M121.002 112.572C121.026 116.502 117.853 119.701 113.922 119.725C109.992 119.749 106.794 116.576 106.769 112.645C106.745 108.715 109.918 105.517 113.849 105.492H113.885C117.792 105.468 120.977 108.629 121.002 112.535V112.572ZM108.283 112.548C108.283 115.636 110.785 118.199 113.873 118.199C116.998 118.236 119.549 115.721 119.586 112.609C119.622 109.484 117.108 106.933 113.995 106.896C110.871 106.859 108.319 109.374 108.283 112.487V112.548Z" fill="white"/>
<path d="M123.065 105.724H125.628C127.679 105.724 129.339 105.993 130.95 107.372C132.512 108.715 133.208 110.546 133.208 112.572C133.208 114.598 132.476 116.319 130.987 117.662C129.351 119.115 127.728 119.383 125.591 119.383H123.065V105.737V105.724ZM125.689 117.967C127.361 117.967 128.753 117.735 129.998 116.551C132.219 114.403 132.268 110.875 130.132 108.666C130.071 108.593 129.998 108.532 129.925 108.459C128.68 107.36 127.3 107.14 125.689 107.14H124.59V117.967H125.689Z" fill="white"/>
<path d="M147.868 117.455C146.66 118.541 145.207 119.615 143.51 119.615C141.423 119.615 139.531 118.053 139.531 115.88C139.531 113.597 141.179 112.511 142.876 111.388L143.034 111.278C142.424 110.424 141.679 109.508 141.679 108.385C141.679 106.664 142.961 105.492 144.67 105.492C146.208 105.492 147.563 106.579 147.563 108.178C147.563 109.777 146.33 110.692 145.158 111.583L148.039 115.258L149.577 113.463L150.675 114.366L148.942 116.393L151.261 119.383H149.345L147.88 117.467L147.868 117.455ZM143.278 112.841C142.241 113.549 141.02 114.379 141.02 115.77C141.02 117.052 142.143 118.236 143.425 118.236C144.804 118.236 145.988 117.174 146.977 116.319L143.938 112.413L143.291 112.853L143.278 112.841ZM144.414 110.387C145.195 109.789 146.122 109.264 146.122 108.178C146.122 107.348 145.439 106.786 144.633 106.786C143.828 106.786 143.144 107.433 143.132 108.251V108.288C143.132 108.971 143.584 109.484 143.962 110.021L144.291 110.473L144.414 110.375V110.387Z" fill="white"/>
<path d="M54.0622 149.215L57.3823 156.881L60.7146 149.215L62.57 158.871H61.5202L60.3484 152.694H60.324L57.3823 159.249L54.4528 152.694H54.4283L53.2565 158.871H52.219L54.0744 149.215H54.0622Z" fill="#010101"/>
<path d="M66.1709 156.271L65.0723 158.859H63.9615L68.1727 149.289L72.2741 158.859H71.1511L70.0769 156.271H66.1709ZM68.1483 151.669L66.5859 155.331H69.6741L68.1483 151.669Z" fill="#010101"/>
<path d="M74.4224 149.338L81.5509 156.796V149.728H82.564V159.274L75.4355 151.828V158.859H74.4224V149.338Z" fill="#010101"/>
<path d="M86.9096 156.271L85.811 158.859H84.7002L88.9114 149.289L93.0127 158.859H91.8897L90.8156 156.271H86.9096ZM88.887 151.669L87.3246 155.331H90.4128L88.887 151.669Z" fill="#010101"/>
<path d="M103.596 154.281C103.62 155.514 103.486 156.539 102.656 157.503C101.801 158.468 100.568 159.029 99.2745 159.029C96.6623 159.066 94.5262 156.966 94.4896 154.366C94.453 151.754 96.5525 149.618 99.1524 149.582H99.3233C100.922 149.582 102.216 150.302 103.193 151.559L102.46 152.255C101.691 151.181 100.666 150.534 99.3233 150.534C97.236 150.534 95.5882 152.291 95.5882 154.354C95.5882 155.319 95.9666 156.234 96.6379 156.93C97.3093 157.601 98.2736 158.089 99.2257 158.089C100.812 158.089 102.485 156.93 102.485 155.233H99.775V154.293H103.596V154.281Z" fill="#010101"/>
<path d="M106.11 149.728H110.846V150.668H107.123V153.378H110.724V154.318H107.123V157.907H110.846V158.846H106.11V149.716V149.728Z" fill="#010101"/>
<path d="M114.862 149.215L118.182 156.881L121.514 149.215L123.37 158.871H122.332L121.16 152.694H121.136L118.194 159.249L115.265 152.694H115.24L114.069 158.871H113.031L114.886 149.215H114.862Z" fill="#010101"/>
<path d="M125.604 149.728H130.34V150.668H126.617V153.378H130.23V154.318H126.617V157.907H130.34V158.846H125.604V149.716V149.728Z" fill="#010101"/>
<path d="M133.22 149.338L140.349 156.796V149.728H141.362V159.274L134.234 151.828V158.859H133.22V149.338Z" fill="#010101"/>
<path d="M146.757 158.859H145.744V150.668H143.547V149.728H149.003V150.668H146.769V158.859H146.757Z" fill="#010101"/>
<path d="M54.8921 95.886H53.3663V82.2393H54.8921V95.886Z" fill="white"/>
<path d="M59.7502 81.6533L70.3942 92.8099V82.2392H71.9078V96.5085L61.2638 85.3763V95.8981H59.738V81.6655H59.7502V81.6533Z" fill="white"/>
<path d="M82.9302 84.9003C82.3809 83.9604 81.7339 83.4111 80.5743 83.4111C79.4147 83.4111 78.3162 84.2777 78.3162 85.535C78.3162 86.7068 79.5246 87.2561 80.4523 87.6711L81.3555 88.0739C83.1255 88.8551 84.6269 89.734 84.6269 91.9189C84.6269 94.2992 82.7105 96.1301 80.3302 96.1301C78.1331 96.1301 76.5096 94.7142 76.0702 92.6025L77.5594 92.1875C77.7547 93.579 78.8288 94.7264 80.2936 94.7264C81.7584 94.7264 83.1011 93.6034 83.1011 92.0654C83.1011 90.5274 81.856 89.9293 80.5865 89.3556L79.7565 88.9894C78.1575 88.2692 76.7904 87.4514 76.7904 85.4984C76.7904 83.3745 78.5847 82.0196 80.611 82.0196C82.1001 81.9952 83.4672 82.8252 84.1386 84.1435L82.9302 84.9247V84.9003Z" fill="white"/>
<path d="M92.4756 95.886H90.962V83.643H87.6663V82.2271H95.8079V83.643H92.4756V95.886Z" fill="white"/>
<path d="M100.91 95.886H99.3844V82.2393H100.91V95.886Z" fill="white"/>
<path d="M109.296 95.886H107.77V83.643H104.474V82.2271H112.628V83.643H109.296V95.886Z" fill="white"/>
<path d="M117.67 90.3687C117.67 91.3818 117.633 92.5414 118.268 93.4081C118.866 94.2381 120.025 94.7142 121.014 94.7142C122.003 94.7142 123.016 94.2625 123.7 93.5057C124.432 92.6391 124.371 91.4428 124.371 90.3687V82.2393H125.897V90.7837C125.897 92.2729 125.787 93.4447 124.7 94.5677C123.748 95.5686 122.418 96.1301 121.026 96.1301C119.708 96.1301 118.451 95.6418 117.499 94.7386C116.302 93.6034 116.156 92.3583 116.156 90.7959V82.2515H117.682V90.3809L117.67 90.3687Z" fill="white"/>
<path d="M134.197 95.886H132.671V83.643H129.375V82.2271H137.529V83.643H134.197V95.886Z" fill="white"/>
<path d="M141.081 82.2393H148.161V83.6552H142.607V87.7077H148.002V89.1236H142.607V94.4822H148.161V95.8982H141.081V82.2515V82.2393Z" fill="white"/>
</g>
<defs>
<clipPath id="clip0_142_2461">
<rect width="212" height="212" fill="white"/>
</clipPath>
</defs>
</svg>
